X: 37240
T: Six Twenty Twostep
R: jig
M: 6/8
K: Gmajor
D|G2G FGA|G2G G2D|B2B ABc|(B3B)AB|
c2c ABc|B2B G2B|ABA GFE|D3 DEF|
G2G FGA|G2G G2D|B2B ABc|(B3B)AB|
c2A F2e|d2c B2c|ded cBA|(G3 G2)||
K:D
A|A2B B2A|Afd A2A|A2f fef|(g3 g2)A|
A2[ce] [c2e2][Bd]|[B2d2][Bd] [A3c3]|ced c2B|B2_B A2A|
A2B B2A|Afd A2f|a2f dc=c|(B3 B2)B|
B2g g2B|A2f fed|cBA GFE|(D3 D2)z||
K:C
|E3 B,3|C3 E3|A2G G2^F|(G3 G3)|
E3 B,3|C2E A2G|(G3 G3)|(B,3 B,2)C|
D3 ^C3|D2E F2E|D2D ^CDE|(D3 D3)|
D2^D E2F|^F2c B2A|G2G AG^F|(G3 G3)|
E3 B,3|C3 E3|A2G G2^F|(G3 G3)|
e3 c3|G3 E3|B2A A2^G|(A3 A) de|
f2e d2^c|d3 G3|e2d cBA|(G3 G3)|
A2c cBA|G2e edc|BAG FED|(C3 C3)||

